symbols/web/hiking/materialsymbolsoutlined/hiking_40px.svg

<svg xmlns="http://www.w3.org/2000/svg" height="40" width="40"><path d="M22.208 8.792q-1.291 0-2.208-.938-.917-.937-.917-2.229T20 3.417q.917-.917 2.208-.917 1.292 0 2.23.917.937.916.937 2.208 0 1.292-.937 2.229-.938.938-2.23.938Zm-10.5 29.541 5.084-25.875q.208-1.041 1-1.604.791-.562 1.666-.562.875 0 1.646.375.771.375 1.229 1.125l1.625 2.666q.792 1.292 2.125 2.313 1.334 1.021 3.084 1.562v-3.041h1.958v23.041h-1.958V21.208q-2.084-.458-3.896-1.583-1.813-1.125-3.229-2.75l-1.125 5.708 3.541 3.375v12.375h-2.791V28.208l-3.959-3.75-3.041 13.875Zm.709-16.666 2.166-10.875-1.666-.334q-1.25-.208-2.292.48-1.042.687-1.292 1.937l-1.25 6.542q-.083.541.25 1.041.334.5.834.584Z"/></svg>

<svg xmlns="http://www.w3.org/2000/svg" height="40" width="40"><path d="M22.208 8.792Q20.917 8.792 20 7.854Q19.083 6.917 19.083 5.625Q19.083 4.333 20 3.417Q20.917 2.5 22.208 2.5Q23.5 2.5 24.438 3.417Q25.375 4.333 25.375 5.625Q25.375 6.917 24.438 7.854Q23.5 8.792 22.208 8.792ZM11.708 38.333 16.792 12.458Q17 11.417 17.792 10.854Q18.583 10.292 19.458 10.292Q20.333 10.292 21.104 10.667Q21.875 11.042 22.333 11.792L23.958 14.458Q24.75 15.75 26.083 16.771Q27.417 17.792 29.167 18.333V15.292H31.125V38.333H29.167V21.208Q27.083 20.75 25.271 19.625Q23.458 18.5 22.042 16.875L20.917 22.583L24.458 25.958V38.333H21.667V28.208L17.708 24.458L14.667 38.333ZM12.417 21.667 14.583 10.792 12.917 10.458Q11.667 10.25 10.625 10.938Q9.583 11.625 9.333 12.875L8.083 19.417Q8 19.958 8.333 20.458Q8.667 20.958 9.167 21.042Z"/></svg>
